X: 1
T: Lady Home's Jig
R: jig
M: 6/8
L: 1/8
Z: John Chambers <jc:trillian.mit.edu>
K: C
d \
|: "C"c2g- geg | gea g2e | ceg {a}gfe | "Dm"ded "G7"f2d \
|  "C"c2g- geg | gea g2e | "F"f>ga "C"gfe | "Dm"ded "G7"f2d :|
|: "C"c>dc cGc | cGc "G7"{cd}e2d | "C"cdc cGE | "Dm"DED "G7"e2d \
|  "C"c>dc cGE | CDE cGE | "G7"FdF "C"EcE | "Dm"DED "G7"e2d :|
